!!!COM: Robert Schumann
!!!CNT: Deutsch
!!!TXO: Deutsch
!!!OTL: Aus den o2stlichen Rosen
!!!LYR: Ru2ckert
!!!OPR: Myrten
!!!OPS: Op. 25
!!!ONM: No. 25
!!!ENC: Ben Fuhrman
!!!YOR: Schumann Lieder - Max Friedlaender, ed.,
!!!YOR: New York: C. F. Peters, Vol. 1
!!!ODT: 1840/
!!NB: Vocal melody and text only encoded.
!!NB: First instance of melodic material only encoded.
**kern	**silbe
*clefG2	*
*k[b-e-a-]	*
*M2/4	*
!!created: 5/15/06 15:44
!!proofed and posted: 5/15/06 15:45
!!edit time: 30 minutes
=1	=1
4r	.
8r	.
{8b-	{Ich
=2	=2
8.b-	sen-
16b-	-de
(16b-	ei-
8cc)	-|
16b-	-nen
=3	=3
8.b-	Gruss
16b-	wie
8.cc	Duft
16g	der
=4	=4
8a-	Ro-
8cc}	-sen}
4r	.
=5	=5
4r	.
8r	.
{8b-	{Ich
=6	=6
8.g	send'
16g	ihn
(16g	an
8b-)	|
16a-	ein
=7	=7
8.f	Ro-
16f	-sen-
(16f	-an
8g)	|
16d	-ge-
=8	=8
4e-}	-sicht,}
4r	.
=9	=9
4r	.
8r	.
{8b-	{ich
=10	=10
8.b-	sen-
16b-	-de
(16b-	ei-
8cc)	|
16b-	-nen
=11	=11
8.b-	Gruss
16b-	wie
8.cc	Fru2h-
16g	-lings-
=12	=12
8a-	-ko-
8cc}	-sen,}
4r	.
=13	=13
4r	.
8r	.
{8b-	{ich
=14	=14
8.g	send'
16g	ihn
(8an	an
16b-)	|
16cc	ein
=15	=15
8.b-	Aug'
16b-	voll
8.f#	Fru2h-
16f#	-lings-
=16	=16
4g}	-licht}
4r	.
=17	=17
4r	.
8r	.
{8g	{Aus
=18	=18
8.g	Schmer-
16g	-zens-
(16g	-stu2r-
8a-)	|
16g	-men,
=19	=19
8.g	die
16g	mein
8.bn	Herz
16bn	durch-
=20	=20
8cc	-to-
8g}	-sen,}
4r	.
!! rest to measure 22
=22	=22
{8g	{send'
16g	ich
16g	den
(16g	Hauch,
8a)	|
16g	dich
=23	=23
8g.	un-
16g	-sanft
(8anS	ru2hr
16g)	|
16an	er
=24	=24
2b-}	nicht}
!! rest to measure 26
=26	=26
{8b-	{Wenn
16b-	du
16b-	ge-
(16b-	den
8cc)	|
16b-	kest
=27	=27
8.b-	an
16b-	den
8.cc	Freu-
16g	-de-
=28	=28
8a-	-lo-
4cc}	-sen,}
8r	.
=29	=29
4r	.
8r	.
{8ee-	{so
=30	=30
8ee-	wird
8cc	der
8a-	Him-
8f	-mel
=31	=31
8.g	mei-
16g	-ner
8.f	Na2ch-
16f	-te
=32	=32
[2e-	licht,
=33	=33
8e-]	|
8e-	so
8en	wird
8f	der
=34	=34
8g	Him-
8g	-mel
8a-	mei-
8an	-ner
=35	=35
4.b-	Na2ch-
8d	-te
=36	=36
4e-}	licht.
4r	.
==	==
*-	*-
